src/xmb/monochrome/Nokia - N-Gage 2.0.svg

<svg xmlns="http://www.w3.org/2000/svg" xml:space="preserve" viewBox="0 0 64 64"><path d="M58.5 26.53c-.06-1.41-.15-2.91-.84-4.18-.8-1.48-2.32-2.17-3.84-2.68-3.21-1.08-6.63-1.97-9.94-2.5-3.84-.61-7.85-.95-11.76-.99-3.78-.02-7.58-.13-11.34.37-.46.08-.95.19-1.39.34-.32.11-.65 1.24-.78 1.56-1.41.27-2.83.51-4.24.78-1.46.3-2.89.61-4.33.97-1.41.36-2.51.91-3.36 2.03-.42.55-.68 1.35-.8 2.01-.34 1.73-.49 3.61-.36 5.38.19 2.55.57 5.11 1.56 7.5a13 13 0 0 0 2.22 3.57c1.2 1.31 2.81 2.49 4.43 3.21 2.34 1.03 4.62 1.79 7.07 2.39 3.63.87 7.45 1.27 11.13 1.29 3.99.02 7.42-.07 11.4-.74.28-.05.55-.13.8-.23.55-.21.97-1.08 1.21-1.58 2.36-.76 4.67-1.41 6.82-2.66 1.67-.97 3.04-2.39 4.01-4.05 1.67-2.83 2.13-6.31 2.32-9.52.03-.03.05-2.27.01-2.27m-5.1-.57-2.78.41c-.48-1.07-1.09-1.98-1.73-2.72l2.18-.67c.88.79 1.7 1.78 2.33 2.98m-9.75 5.69h2.78c-.03.95-.15 1.79-.32 2.52l-2.54-.37c.04-.7.07-1.43.08-2.15m-.09-3.15 2.5-.36c.19.71.33 1.54.36 2.51h-2.78c0-.74-.04-1.47-.08-2.15m1.69-3.8 2.72-.84c.67.7 1.29 1.55 1.76 2.6l-3.02.44c-.39-.88-.9-1.61-1.46-2.2m.49 2.47-2.25.33c-.08-1.08-.18-1.93-.23-2.32l.99-.3c.28.25.96.97 1.49 2.29m-2.24 7.62 2.32.34c-.41 1.21-.93 1.99-1.24 2.39l-1.29-.4c.06-.5.14-1.33.21-2.33m3.27.61 2.91.42a9.7 9.7 0 0 1-1.79 2.59l-2.46-.76c.51-.6.97-1.34 1.34-2.25m.39-1.21c.18-.72.3-1.52.34-2.42h3.14c-.05 1.06-.22 2.01-.5 2.85zm.35-3.67a11 11 0 0 0-.36-2.42l3.02-.44c.25.84.41 1.8.47 2.86zm-2.24-10.54s2.47.51 4.63 2.05l-1.98.61c-1.48-1.36-3.37-1.85-3.37-1.85zm-1.36 1.33c.82.28 1.91.77 2.97 1.57l-2.73.84c-.51-.37-1.02-.65-1.48-.87zM12.36 28s0-.7.27-1.02 1.14-.24 1.47-.6c.36-.33.24-1.18.55-1.44.32-.27 1.02-.27 1.02-.27s.7 0 1.02.27.24 1.14.6 1.47c.33.36 1.18.24 1.44.55.27.32.27 1.02.27 1.02s0 .7-.27 1.02-1.14.24-1.47.6c-.36.33-.24 1.18-.55 1.44-.32.27-1.02.27-1.02.27s-.7 0-1.02-.27-.24-1.14-.6-1.47c-.33-.36-1.18-.24-1.44-.55-.26-.32-.27-1.02-.27-1.02m6.08 5.48c0-.76.61-1.38 1.37-1.38s1.37.59 1.37 1.35c.02.76-.61 1.4-1.37 1.4s-1.35-.61-1.37-1.37m.01 3.94-2.69.83c-.58-.69-1.1-1.53-1.51-2.54l3-.44c.34.85.75 1.57 1.2 2.15m-2.77-5.19c.31 0 .62-.04.91-.1.06.7.16 1.34.3 1.93l-3.03.44c-.24-.87-.39-1.84-.43-2.93.64.41 1.42.66 2.25.66m2.26 10.16c-.46-.13-2.38-.72-4.32-2.14l2.02-.62c1.32 1.25 2.57 1.88 2.89 2.04zm1.39-1.54c-.73-.3-1.66-.81-2.57-1.6l2.66-.82c.4.35.8.62 1.17.84zm12.71 1.21c-9.7 0-11.37-.78-11.37-.78s-.03-.01-.06-.01l1.17-1.46c.49.18.81.23.81.23s.31.15 1.45.31V22.19c-.62.06-1.14.14-1.45.23-.94.28-2.61.97-3.96 2.51a4.26 4.26 0 0 0-2.5-1.14c1.58-1.6 3.47-2.33 4.54-2.64 2.09-.59 11.37-.59 11.37-.59s7.48 0 10.52.43l-1.13 1.41c-.33-.09-.85-.16-1.48-.22v18.18c1.22-.16 1.55-.32 1.55-.32s.03 0 .05-.01l1.15 1.44c-1.17.23-4.04.59-10.66.59m11.94-.99-1.17-1.46c.48-.21 1.03-.52 1.6-.97l2.41.74c-1.12.9-2.2 1.43-2.84 1.69m1.16 1.46-.62-.85s1.92-.67 3.39-2.03l1.98.61c-2.16 1.54-4.75 2.27-4.75 2.27m5.94-3.21-2.18-.67c.64-.74 1.25-1.65 1.73-2.72l2.78.4c-.64 1.2-1.46 2.19-2.33 2.99m2.85-4.18-2.86-.42c.28-.88.45-1.87.5-2.95h3.02c-.06 1.26-.29 2.38-.66 3.37m-2.36-4.62c-.05-1.08-.23-2.07-.5-2.95l2.86-.42c.37.99.6 2.11.66 3.37z" style="fill:#fff"/></svg>

<?xml version="1.0" encoding="utf-8"?>
<!-- Generator: Adobe Illustrator 26.3.1, SVG Export Plug-In . SVG Version: 6.00 Build 0)  -->
<svg version="1.1" id="Layer_1" xmlns="http://www.w3.org/2000/svg" xmlns:xlink="http://www.w3.org/1999/xlink" x="0px" y="0px"
	 viewBox="0 0 64 64" style="enable-background:new 0 0 64 64;" xml:space="preserve">
<style type="text/css">
	.st0{fill:#FFFFFF;}
</style>
<path class="st0" d="M58.5,26.53c-0.06-1.41-0.15-2.91-0.84-4.18c-0.8-1.48-2.32-2.17-3.84-2.68c-3.21-1.08-6.63-1.97-9.94-2.5
	c-3.84-0.61-7.85-0.95-11.76-0.99c-3.78-0.02-7.58-0.13-11.34,0.37c-0.46,0.08-0.95,0.19-1.39,0.34c-0.32,0.11-0.65,1.24-0.78,1.56
	c-1.41,0.27-2.83,0.51-4.24,0.78c-1.46,0.3-2.89,0.61-4.33,0.97c-1.41,0.36-2.51,0.91-3.36,2.03c-0.42,0.55-0.68,1.35-0.8,2.01
	c-0.34,1.73-0.49,3.61-0.36,5.38c0.19,2.55,0.57,5.11,1.56,7.5c0.55,1.31,1.29,2.51,2.22,3.57c1.2,1.31,2.81,2.49,4.43,3.21
	c2.34,1.03,4.62,1.79,7.07,2.39c3.63,0.87,7.45,1.27,11.13,1.29c3.99,0.02,7.42-0.07,11.4-0.74c0.28-0.05,0.55-0.13,0.8-0.23
	c0.55-0.21,0.97-1.08,1.21-1.58c2.36-0.76,4.67-1.41,6.82-2.66c1.67-0.97,3.04-2.39,4.01-4.05c1.67-2.83,2.13-6.31,2.32-9.52
	C58.52,28.77,58.54,26.53,58.5,26.53z M53.4,25.96l-2.78,0.41c-0.48-1.07-1.09-1.98-1.73-2.72l2.18-0.67
	C51.95,23.77,52.77,24.76,53.4,25.96z M43.65,31.65h2.78c-0.03,0.95-0.15,1.79-0.32,2.52l-2.54-0.37
	C43.61,33.1,43.64,32.37,43.65,31.65z M43.56,28.5l2.5-0.36c0.19,0.71,0.33,1.54,0.36,2.51h-2.78C43.64,29.91,43.6,29.18,43.56,28.5
	z M45.25,24.7l2.72-0.84c0.67,0.7,1.29,1.55,1.76,2.6l-3.02,0.44C46.32,26.02,45.81,25.29,45.25,24.7z M45.74,27.17l-2.25,0.33
	c-0.08-1.08-0.18-1.93-0.23-2.32l0.99-0.3C44.53,25.13,45.21,25.85,45.74,27.17z M43.5,34.79l2.32,0.34
	c-0.41,1.21-0.93,1.99-1.24,2.39l-1.29-0.4C43.35,36.62,43.43,35.79,43.5,34.79z M46.77,35.4l2.91,0.42
	c-0.49,1.03-1.11,1.89-1.79,2.59l-2.46-0.76C45.94,37.05,46.4,36.31,46.77,35.4z M47.16,34.19c0.18-0.72,0.3-1.52,0.34-2.42h3.14
	c-0.05,1.06-0.22,2.01-0.5,2.85L47.16,34.19z M47.51,30.52c-0.04-0.89-0.16-1.7-0.36-2.42l3.02-0.44c0.25,0.84,0.41,1.8,0.47,2.86
	H47.51z M45.27,19.98c0,0,2.47,0.51,4.63,2.05l-1.98,0.61c-1.48-1.36-3.37-1.85-3.37-1.85L45.27,19.98z M43.91,21.31
	c0.82,0.28,1.91,0.77,2.97,1.57l-2.73,0.84c-0.51-0.37-1.02-0.65-1.48-0.87L43.91,21.31z M12.36,28c0,0,0-0.7,0.27-1.02
	c0.27-0.32,1.14-0.24,1.47-0.6c0.36-0.33,0.24-1.18,0.55-1.44c0.32-0.27,1.02-0.27,1.02-0.27s0.7,0,1.02,0.27
	c0.32,0.27,0.24,1.14,0.6,1.47c0.33,0.36,1.18,0.24,1.44,0.55c0.27,0.32,0.27,1.02,0.27,1.02s0,0.7-0.27,1.02
	c-0.27,0.32-1.14,0.24-1.47,0.6c-0.36,0.33-0.24,1.18-0.55,1.44c-0.32,0.27-1.02,0.27-1.02,0.27s-0.7,0-1.02-0.27
	c-0.32-0.27-0.24-1.14-0.6-1.47c-0.33-0.36-1.18-0.24-1.44-0.55C12.37,28.7,12.36,28,12.36,28z M18.44,33.48
	c0-0.76,0.61-1.38,1.37-1.38c0.76,0,1.37,0.59,1.37,1.35c0.02,0.76-0.61,1.4-1.37,1.4C19.05,34.85,18.46,34.24,18.44,33.48z
	 M18.45,37.42l-2.69,0.83c-0.58-0.69-1.1-1.53-1.51-2.54l3-0.44C17.59,36.12,18,36.84,18.45,37.42z M15.68,32.23
	c0.31,0,0.62-0.04,0.91-0.1c0.06,0.7,0.16,1.34,0.3,1.93l-3.03,0.44c-0.24-0.87-0.39-1.84-0.43-2.93
	C14.07,31.98,14.85,32.23,15.68,32.23z M17.94,42.39c-0.46-0.13-2.38-0.72-4.32-2.14l2.02-0.62c1.32,1.25,2.57,1.88,2.89,2.04
	L17.94,42.39z M19.33,40.85c-0.73-0.3-1.66-0.81-2.57-1.6l2.66-0.82c0.4,0.35,0.8,0.62,1.17,0.84L19.33,40.85z M32.04,42.06
	c-9.7,0-11.37-0.78-11.37-0.78s-0.03-0.01-0.06-0.01l1.17-1.46c0.49,0.18,0.81,0.23,0.81,0.23s0.31,0.15,1.45,0.31
	c0-3.81,0-14.3,0-18.16c-0.62,0.06-1.14,0.14-1.45,0.23c-0.94,0.28-2.61,0.97-3.96,2.51c-0.66-0.63-1.54-1.04-2.5-1.14
	c1.58-1.6,3.47-2.33,4.54-2.64c2.09-0.59,11.37-0.59,11.37-0.59s7.48,0,10.52,0.43l-1.13,1.41c-0.33-0.09-0.85-0.16-1.48-0.22
	c0,3.86,0,14.37,0,18.18c1.22-0.16,1.55-0.32,1.55-0.32s0.03,0,0.05-0.01l1.15,1.44C41.53,41.7,38.66,42.06,32.04,42.06z
	 M43.98,41.07l-1.17-1.46c0.48-0.21,1.03-0.52,1.6-0.97l2.41,0.74C45.7,40.28,44.62,40.81,43.98,41.07z M45.14,42.53l-0.62-0.85
	c0,0,1.92-0.67,3.39-2.03l1.98,0.61C47.73,41.8,45.14,42.53,45.14,42.53z M51.08,39.32l-2.18-0.67c0.64-0.74,1.25-1.65,1.73-2.72
	l2.78,0.4C52.77,37.53,51.95,38.52,51.08,39.32z M53.93,35.14l-2.86-0.42c0.28-0.88,0.45-1.87,0.5-2.95h3.02
	C54.53,33.03,54.3,34.15,53.93,35.14z M51.57,30.52c-0.05-1.08-0.23-2.07-0.5-2.95l2.86-0.42c0.37,0.99,0.6,2.11,0.66,3.37H51.57z"
	/>
</svg>
